X: 1
T: Aftermemories
R: reel
M: 4/4
L: 1/8
K: Ador
AB|:c2 dB c2 AB|cBAG (3EFG AG|DGGF G2 Bd|~e3 d ecAB|
c2 dB c2 AB|cBAG (3EFG AG|D ~G3 BG (3Bcd|1 eaed cAAB:|2 eaed cAAG||
|:EAAG A2 AB|cAdB cBAG|EGGF G2 GA|BGdB cBAG|
EAAG A2 AB|cAdB cBAG|(3EFG AB c2 Bc|1 BAG=F EAAG:|2 BAG=F EAA^F||
K:Dmix
|:D2 AF dAFD|e2 ef fdcA|D2 AF dAFD|cBAc BGGE|
D2 AF dAFD|e2 ef fdcA|D2 AF dAFD|1 afge fddA:|2 afge fd||

